X:2
T:Atholl Highlander
Z: id:dc-jig-1
M:6/8
L:1/8
K:A Mixolydian
e3 ecA|ecA Bcd|e3 ecA|Bcd cBA|!
e3 ecA|ecA Bcd|e3 fed|cdB A3:|!
Ace Ace|Adf Adf|Ace Ace|Bcd cBA|!
Ace Ace|Adf Adf|e3 fed|cdB A3:|!
a2e edc|a2e edc|a2e edc|Bcd cBA|!
a2e edc|a2e edc|e3 fed|cdB A3:|!
c3 cBA|d2e fed|c3 cBA|G2A BAG|!
c3 cBA|d2e fed|e3 fed|cdB A3:|!

